X: 83
T: Sen ji de ma
L: 1/8
K: Db
A2>B2d3B | 
d2A2F ED2d2<d2A B A | 
f e2<d2ed2d4a4 | 
f2a2f ed2d2<d2d e f | 
c B2<A2BA2d2A B ed2B | 
d2F A F E z F A> Bd2d2F E | 
FD2ED2z2d2>A2 B A f e | 
d2>e2_c2B2A2>B2d3B | 
d2F A F E z F2<A2Bd2B A | 
F2E2FD2z E F> A B> dA2F E | 
D> E F A AD3 |]

@@@ Tune index: 8751
